X:1
T:The Regular Army, Oh
M:6/8
L:1/8
K:A
 E| F2 F F2 F| F2 E C2 E| A2 B c2 A| B3- B z e| f2 e c2 B| A F2 z2E/2-C/2|\
 E2 E E2 C| E3- E2 E| F2 F FFF| F2- E C2 E| A2 B c2 A| B3- B z e| ffe c2 B|\
 A F2 F2 C/2C/2| F2 F F2 F| F3- F z c| e2 e e2 c| e2 c A2 c| e2 e e2 e|\
 e3- e2 e| f2 e c2 B| A2 F E2 C| E2 E E2 C| E3- E z E| F2 F F2 G| F2 E C2 E|\
 A2 B c2 A| B3- B z e/2e/2| f2 e c2 B| A2 F ECC| FFF F2 F| F3- F z||\
